X: 1
T: Smash the Windows
T: Roaring Jelly
C: Trad
R: Jig
L: 1/8
M: 6/8
K: D
Z: ABC transcription by Verge Roller
|: A | "D" DED F2 A | "D" d2 f "A" ecA | "G" G2 B "D" F2 A | "A" E2 F GFE |
"D" DED F2 A | "D" d2 f "A" ecA | "G" Bgf "A" edc | "D" d3 d2 :|
|: f | "D" a2 f d2 f | "D" A2 d agf | "A" g2 e c2 e | "A" A2 e gfe |
"D" fed "Em" gfe | "D" agf "G" bag | "D" fed "A" edc | "D" d3 d2 :|
r: 32
